icons/category__first-image.svg

<svg width="56" height="56" viewBox="0 0 56 56" fill="none" xmlns="http://www.w3.org/2000/svg">
    <circle cx="28" cy="28" r="28" fill="#FCB72B" />
    <path fill-rule="evenodd" clip-rule="evenodd"
        d="M31.3833 14H19.2564C17.9691 14.0016 16.9259 15.0448 16.9243 16.3321V39.653C16.9259 40.9403 17.9691 41.9834 19.2564 41.9851H30.9169V41.1507C30.9146 39.0496 31.5366 36.9946 32.7042 35.2477C32.8278 35.0625 32.8029 34.8161 32.6459 34.659L29.3809 31.3941C29.0792 31.092 28.9192 30.6765 28.9403 30.2501C28.9615 29.8235 29.162 29.4261 29.4919 29.1553C30.1276 28.6694 31.0265 28.7388 31.5801 29.3161L36.1841 33.9202L36.8436 33.2607L33.7154 30.1315V16.3321C33.7137 15.0448 32.6706 14.0016 31.3833 14ZM32.7825 29.1987L32.2396 28.6558C31.3448 27.7416 29.9057 27.6463 28.8982 28.4349C28.3653 28.8729 28.042 29.5159 28.0083 30.2051C27.9747 30.8942 28.2336 31.5655 28.7214 32.0536L31.7205 35.0528C30.602 36.8552 30.0022 38.9312 29.9873 41.0522H19.2564C18.4838 41.0522 17.8572 40.4256 17.8572 39.653V38.2537H29.5176V37.3209H17.8572V17.7313H32.7825V29.1987ZM17.8572 16.7985H32.7825V16.3321C32.7825 15.5595 32.1559 14.9328 31.3833 14.9328H19.2564C18.4838 14.9328 17.8572 15.5595 17.8572 16.3321V16.7985ZM35.0906 24.8503L34.4616 25.5378L37.3221 28.16C37.9954 28.7795 38.3793 29.6524 38.3795 30.5672V41.9851H39.3124V30.5672C39.3112 29.3906 38.8177 28.2687 37.9514 27.4724L35.0906 24.8503ZM19.7228 22.3955H21.5885C22.1038 22.3955 22.5213 21.978 22.5213 21.4627V19.597C22.5213 19.0817 22.1038 18.6642 21.5885 18.6642H19.7228C19.2075 18.6642 18.79 19.0817 18.79 19.597V21.4627C18.79 21.978 19.2075 22.3955 19.7228 22.3955ZM19.7228 19.597H21.5885V21.4627H19.7228V19.597ZM26.2527 22.3955H24.387C23.8717 22.3955 23.4542 21.978 23.4542 21.4627V19.597C23.4542 19.0817 23.8717 18.6642 24.387 18.6642H26.2527C26.768 18.6642 27.1855 19.0817 27.1855 19.597V21.4627C27.1855 21.978 26.768 22.3955 26.2527 22.3955ZM26.2527 19.597H24.387V21.4627H26.2527V19.597ZM29.0512 22.3955H30.9169C31.4321 22.3955 31.8497 21.978 31.8497 21.4627V19.597C31.8497 19.0817 31.4321 18.6642 30.9169 18.6642H29.0512C28.5359 18.6642 28.1183 19.0817 28.1183 19.597V21.4627C28.1183 21.978 28.5359 22.3955 29.0512 22.3955ZM29.0512 19.597H30.9169V21.4627H29.0512V19.597ZM21.5885 27.0597H19.7228C19.2075 27.0597 18.79 26.6421 18.79 26.1269V24.2612C18.79 23.7459 19.2075 23.3284 19.7228 23.3284H21.5885C22.1038 23.3284 22.5213 23.7459 22.5213 24.2612V26.1269C22.5213 26.6421 22.1038 27.0597 21.5885 27.0597ZM21.5885 24.2612H19.7228V26.1269H21.5885V24.2612ZM19.7228 31.7239H21.5885C22.1038 31.7239 22.5213 31.3063 22.5213 30.791V28.9254C22.5213 28.4101 22.1038 27.9925 21.5885 27.9925H19.7228C19.2075 27.9925 18.79 28.4101 18.79 28.9254V30.791C18.79 31.3063 19.2075 31.7239 19.7228 31.7239ZM19.7228 28.9254H21.5885V30.791H19.7228V28.9254ZM26.2527 27.0597H24.387C23.8717 27.0597 23.4542 26.6421 23.4542 26.1269V24.2612C23.4542 23.7459 23.8717 23.3284 24.387 23.3284H26.2527C26.768 23.3284 27.1855 23.7459 27.1855 24.2612V26.1269C27.1855 26.6421 26.768 27.0597 26.2527 27.0597ZM26.2527 24.2612H24.387V26.1269H26.2527V24.2612ZM29.0512 27.0597H30.9169C31.4321 27.0597 31.8497 26.6421 31.8497 26.1269V24.2612C31.8497 23.7459 31.4321 23.3284 30.9169 23.3284H29.0512C28.5359 23.3284 28.1183 23.7459 28.1183 24.2612V26.1269C28.1183 26.6421 28.5359 27.0597 29.0512 27.0597ZM29.0512 24.2612H30.9169V26.1269H29.0512V24.2612ZM26.2527 31.7239H24.387C23.8717 31.7239 23.4542 31.3063 23.4542 30.791V28.9254C23.4542 28.4101 23.8717 27.9925 24.387 27.9925H26.2527C26.768 27.9925 27.1855 28.4101 27.1855 28.9254V30.791C27.1855 31.3063 26.768 31.7239 26.2527 31.7239ZM26.2527 28.9254H24.387V30.791H26.2527V28.9254ZM19.7228 36.3881H21.5885C22.1038 36.3881 22.5213 35.9705 22.5213 35.4552V33.5896C22.5213 33.0743 22.1038 32.6567 21.5885 32.6567H19.7228C19.2075 32.6567 18.79 33.0743 18.79 33.5896V35.4552C18.79 35.9705 19.2075 36.3881 19.7228 36.3881ZM19.7228 33.5896H21.5885V35.4552H19.7228V33.5896ZM26.2527 36.3881H24.387C23.8717 36.3881 23.4542 35.9705 23.4542 35.4552V33.5896C23.4542 33.0743 23.8717 32.6567 24.387 32.6567H26.2527C26.768 32.6567 27.1855 33.0743 27.1855 33.5896V35.4552C27.1855 35.9705 26.768 36.3881 26.2527 36.3881ZM26.2527 33.5896H24.387V35.4552H26.2527V33.5896ZM25.7863 39.1866H24.8534V40.1194H25.7863V39.1866Z"
        fill="#495567" />
</svg>

<svg xmlns="http://www.w3.org/2000/svg" width="56" height="56" fill="none" viewBox="0 0 56 56">
    <circle cx="28" cy="28" r="28" fill="#fcb72b" />
    <path fill="#495567" fill-rule="evenodd"
        d="M31.383 14H19.256a2.335 2.335 0 0 0-2.332 2.332v23.321a2.335 2.335 0 0 0 2.332 2.332h11.66v-.834a10.6 10.6 0 0 1 1.788-5.903.47.47 0 0 0-.058-.589l-3.265-3.265a1.513 1.513 0 0 1 .11-2.239 1.57 1.57 0 0 1 2.09.161l4.603 4.604.66-.66-3.129-3.128v-13.8A2.335 2.335 0 0 0 31.383 14m1.4 15.199-.543-.543a2.51 2.51 0 0 0-3.342-.221 2.446 2.446 0 0 0-.177 3.619l3 2.999a11.53 11.53 0 0 0-1.734 6h-10.73a1.4 1.4 0 0 1-1.4-1.4v-1.4h11.66v-.932h-11.66V17.73h14.926zm-14.926-12.4h14.926v-.467a1.4 1.4 0 0 0-1.4-1.4H19.256a1.4 1.4 0 0 0-1.399 1.4zm17.234 8.051-.63.688 2.861 2.622a3.27 3.27 0 0 1 1.057 2.407v11.418h.933V30.567a4.2 4.2 0 0 0-1.36-3.095zm-15.368-2.455h1.866a.933.933 0 0 0 .932-.932v-1.866a.933.933 0 0 0-.933-.933h-1.865a.933.933 0 0 0-.933.933v1.866c0 .515.418.932.933.932m0-2.798h1.866v1.866h-1.866zm6.53 2.798h-1.866a.933.933 0 0 1-.933-.932v-1.866c0-.515.418-.933.933-.933h1.866c.515 0 .933.418.933.933v1.866a.933.933 0 0 1-.933.932m0-2.798h-1.866v1.866h1.866zm2.798 2.798h1.866a.933.933 0 0 0 .933-.932v-1.866a.933.933 0 0 0-.933-.933H29.05a.933.933 0 0 0-.933.933v1.866c0 .515.418.932.933.932m0-2.798h1.866v1.866H29.05zM21.59 27.06h-1.866a.933.933 0 0 1-.933-.933V24.26c0-.515.418-.933.933-.933h1.866c.515 0 .932.418.932.933v1.866a.933.933 0 0 1-.933.933m0-2.799h-1.866v1.866h1.866zm-1.866 7.463h1.866a.933.933 0 0 0 .932-.933v-1.866a.933.933 0 0 0-.933-.933h-1.865a.933.933 0 0 0-.933.933v1.866c0 .515.418.933.933.933m0-2.799h1.866v1.866h-1.866zm6.53-1.865h-1.866a.933.933 0 0 1-.933-.933V24.26c0-.515.418-.933.933-.933h1.866c.515 0 .933.418.933.933v1.866a.933.933 0 0 1-.933.933m0-2.799h-1.866v1.866h1.866zm2.798 2.799h1.866a.933.933 0 0 0 .933-.933V24.26a.933.933 0 0 0-.933-.933H29.05a.933.933 0 0 0-.933.933v1.866c0 .515.418.933.933.933m0-2.799h1.866v1.866H29.05zm-2.798 7.463h-1.866a.933.933 0 0 1-.933-.933v-1.866c0-.515.418-.933.933-.933h1.866c.515 0 .933.418.933.933v1.866a.933.933 0 0 1-.933.933m0-2.799h-1.866v1.866h1.866zm-6.53 7.463h1.866a.933.933 0 0 0 .932-.933V33.59a.933.933 0 0 0-.933-.933h-1.865a.933.933 0 0 0-.933.933v1.865c0 .516.418.933.933.933m0-2.798h1.866v1.865h-1.866zm6.53 2.798h-1.866a.933.933 0 0 1-.933-.933V33.59c0-.516.418-.933.933-.933h1.866c.515 0 .933.417.933.933v1.865a.933.933 0 0 1-.933.933m0-2.798h-1.866v1.865h1.866zm-.467 5.597h-.933v.932h.933z"
        clip-rule="evenodd" />
</svg>
